circle-slice-2.svg

<svg fill="currentColor" viewBox="0 0 24 24"><path d="M12 2c5.5 0 10 4.5 10 10s-4.5 10-10 10S2 17.5 2 12 6.5 2 12 2m0 2c-4.42 0-8 3.58-8 8s3.58 8 8 8 8-3.58 8-8-3.58-8-8-8m0 1c3.87 0 7 3.13 7 7h-7z"/></svg>

<svg  viewBox="0 0 24 24" fill="currentColor"><path  d="M12 2C17.5 2 22 6.5 22 12C22 17.5 17.5 22 12 22C6.5 22 2 17.5 2 12C2 6.5 6.5 2 12 2M12 4C7.58 4 4 7.58 4 12C4 16.42 7.58 20 12 20C16.42 20 20 16.42 20 12C20 7.58 16.42 4 12 4M12 5C15.87 5 19 8.13 19 12H12V5Z"/></svg>
